X: 34993
T: Rogers
R: jig
M: 6/8
K: Gmajor
|:~G3 BAB|GBd gdB|cBA BAG|FAG FED|
~G3 BAB|GBd gdB|cBA BAG|FAF G2D:|
|:GBd gdB|GBd ecA|GBd gdB|cBA BAF|
GBd gdB|GBd ecA|cBA BAG|FAF G2D:|
|:~g3 efg|fe^c def|~g3 aga|bge ega|
bag agf|gfe dcB|cBA BAG|FAF G2D:|

